X:1
T: Miss Katty Halls
C:
R:Jig
Q: 180
K:D
M:6/8
L:1/8
|:f1/2e1/2|d2A- AFA|AFA f2e|d2A- AGF|EFE f2e|
d2A- AFA|AFA AGF|GAB AGF|1EFE f2e:|2EFE F2E|
|:DEF FEF|DEF F2E|DEF FED|EFE F2E|
DEF FEF|FEF FEF|GAB AGF|1EFE F2E:|2EFE D2||
